build/img/icon-tag.svg

<svg width="43" height="43" viewBox="0 0 43 43" fill="none" xmlns="http://www.w3.org/2000/svg">
<g filter="#filter0_d">
<path d="M15.0707 8.58469C14.9436 8.45752 14.7672 8.38437 14.5874 8.38437C14.4076 8.38437 14.2312 8.45752 14.1041 8.58469C13.977 8.71186 13.9038 8.88825 13.9038 9.06807C13.9038 9.24788 13.977 9.42427 14.1041 9.55144C14.2312 9.67868 14.4076 9.75176 14.5874 9.75176C14.7672 9.75176 14.9436 9.67861 15.0707 9.55144C15.1978 9.42427 15.271 9.24788 15.271 9.06807C15.271 8.88825 15.1979 8.71186 15.0707 8.58469Z" />
<path d="M38.8 2.85866L37.9548 2.01231L38.7998 1.16719C39.0667 0.900207 39.0667 0.46729 38.7998 0.200238C38.5328 -0.0667459 38.1 -0.0667459 37.833 0.200238L36.9885 1.04481L36.1556 0.210835C36.0275 0.0825735 35.8537 0.0103751 35.6724 0.0103067L24.1023 0.00387998C24.1016 0.00387998 24.101 0.00387998 24.1004 0.00387998C23.1868 0.00387998 22.3278 0.359676 21.6818 1.00584L15.9081 6.78034C15.6412 7.04732 15.6412 7.48024 15.9081 7.74729C16.1751 8.01428 16.6079 8.01428 16.8749 7.74729L22.6486 1.97279C23.0364 1.58486 23.5519 1.37134 24.1004 1.37134C24.1008 1.37134 24.1012 1.37134 24.1016 1.37134L35.3884 1.37763L36.0219 2.01183L33.4854 4.54862C32.4099 3.9043 30.9919 4.0448 30.066 4.97066C29.5371 5.49971 29.2459 6.20303 29.2459 6.95113C29.2459 7.69923 29.5371 8.40255 30.066 8.93159C30.612 9.47759 31.3291 9.75059 32.0463 9.75059C32.7634 9.75059 33.4805 9.47759 34.0264 8.93159C34.9508 8.00703 35.0922 6.59164 34.4514 5.51646L36.9881 2.97933L37.6327 3.62481L37.6265 14.8981C37.6261 15.4461 37.4126 15.9614 37.025 16.349L20.3438 33.0327C19.956 33.4205 19.4403 33.6341 18.892 33.6341C18.3436 33.6341 17.8279 33.4205 17.4401 33.0327L5.96861 21.5593C5.58074 21.1715 5.36719 20.6558 5.36719 20.1073C5.36719 19.5588 5.58074 19.0431 5.96861 18.6553L13.3373 11.2854C13.6043 11.0184 13.6043 10.5855 13.3373 10.3185C13.0703 10.0515 12.6376 10.0515 12.3705 10.3185L5.00181 17.6883C4.35581 18.3344 4 19.1935 4 20.1073C4 21.0211 4.35581 21.8802 5.00181 22.5263L16.4733 33.9996C17.1402 34.6665 18.016 35 18.892 35C19.7679 35 20.6437 34.6665 21.3106 33.9996L37.9918 17.3158C38.6373 16.6702 38.993 15.8118 38.9936 14.8987L39 3.34217C39.0001 3.16085 38.9282 2.98692 38.8 2.85866ZM33.0596 7.96457C32.7889 8.23532 32.429 8.38443 32.0463 8.38443C31.6634 8.38443 31.3036 8.23532 31.0329 7.96457C30.474 7.40572 30.474 6.49633 31.0329 5.93748C31.3123 5.65798 31.6792 5.51831 32.0463 5.51831C32.1845 5.51831 32.3227 5.5382 32.4562 5.57786L31.6672 6.36698C31.4003 6.63396 31.4003 7.06688 31.6672 7.33393C31.8007 7.46746 31.9757 7.53419 32.1506 7.53419C32.3255 7.53419 32.5005 7.46746 32.634 7.33393L33.4208 6.547C33.5629 7.03372 33.4427 7.5815 33.0596 7.96457Z" />
<path d="M33.2004 13.7645L25.2339 5.79669C24.1785 4.7412 22.4613 4.74134 21.4061 5.79669L8.79918 18.4056C8.28792 18.9168 8.00635 19.5966 8.00635 20.3197C8.00635 21.0428 8.28785 21.7227 8.79911 22.2339L16.7657 30.2016C17.277 30.7129 17.9566 30.9946 18.6796 30.9946C19.4025 30.9946 20.0823 30.713 20.5934 30.2017L33.2004 17.5928C33.7117 17.0815 33.9932 16.4017 33.9932 15.6786C33.9932 14.9556 33.7117 14.2758 33.2004 13.7645ZM32.2336 16.6258L19.6267 29.2349C19.3738 29.4878 19.0374 29.6272 18.6796 29.6272C18.3219 29.6272 17.9855 29.4878 17.7326 29.2348L9.76592 21.267C9.51292 21.014 9.3736 20.6776 9.3736 20.3198C9.37354 19.9619 9.51292 19.6255 9.76592 19.3725L22.3729 6.76365C22.634 6.50247 22.977 6.37189 23.32 6.37189C23.663 6.37189 24.006 6.50254 24.2671 6.76365L32.2336 14.7314C32.4866 14.9844 32.6259 15.3208 32.6259 15.6786C32.6259 16.0364 32.4866 16.3729 32.2336 16.6258Z" />
<path d="M26.2904 13.677C26.5574 13.41 26.5574 12.9771 26.2904 12.71C26.0234 12.443 25.5907 12.443 25.3236 12.71L24.93 13.1037C23.879 12.4544 22.5304 12.5415 21.6779 13.394C21.1808 13.8912 20.9265 14.5662 20.9618 15.2949C20.9959 15.9985 21.2989 16.6702 21.8148 17.1862C21.8149 17.1863 21.8149 17.1863 21.8149 17.1864C22.3648 17.7365 22.4261 18.5701 21.9517 19.0446C21.4771 19.5191 20.6435 19.4577 20.0935 18.9077C19.5435 18.3575 19.4821 17.5238 19.9566 17.0492C20.2235 16.7822 20.2235 16.3493 19.9566 16.0823C19.6896 15.8153 19.2569 15.8153 18.9898 16.0823C18.1373 16.9348 18.0503 18.2836 18.6995 19.3349L18.2324 19.8019C17.9655 20.0689 17.9655 20.5018 18.2324 20.7689C18.3663 20.9025 18.5412 20.9693 18.7161 20.9693C18.8911 20.9693 19.066 20.9025 19.1995 20.769L19.6668 20.3016C20.1261 20.5853 20.6419 20.729 21.1486 20.729C21.8013 20.7289 22.4387 20.4915 22.9186 20.0115C23.9259 19.004 23.8647 17.3033 22.7822 16.22C22.782 16.2198 22.7819 16.2196 22.7817 16.2194C22.5065 15.9441 22.3451 15.5923 22.3275 15.2287C22.3112 14.8901 22.4238 14.582 22.6448 14.361C23.1192 13.8864 23.9526 13.9478 24.5027 14.4977C24.5028 14.4978 24.5028 14.4979 24.5028 14.4979C24.5029 14.498 24.503 14.498 24.503 14.498C25.0529 15.0482 25.1142 15.8817 24.6397 16.3563C24.3727 16.6233 24.3727 17.0562 24.6397 17.3232C24.7732 17.4568 24.9481 17.5235 25.1231 17.5235C25.298 17.5235 25.4729 17.4568 25.6064 17.3232C26.4589 16.4706 26.546 15.1218 25.8968 14.0706L26.2904 13.677Z" />
<path d="M19.3719 25.0116L15.8609 21.5C15.5939 21.2332 15.1612 21.2331 14.8941 21.5C14.6271 21.767 14.6271 22.1999 14.8941 22.467L18.4051 25.9786C18.5386 26.112 18.7136 26.1788 18.8885 26.1788C19.0634 26.1788 19.2384 26.112 19.3719 25.9786C19.6388 25.7116 19.6388 25.2787 19.3719 25.0116Z" />
<path d="M13.9881 19.6269C13.861 19.4998 13.6853 19.4266 13.5049 19.4266C13.3251 19.4266 13.1494 19.4998 13.0216 19.6269C12.8944 19.7541 12.8213 19.9305 12.8213 20.111C12.8213 20.2908 12.8944 20.4672 13.0216 20.5944C13.1487 20.7215 13.3251 20.7947 13.5049 20.7947C13.6854 20.7947 13.861 20.7215 13.9881 20.5944C14.1159 20.4665 14.1891 20.2908 14.1891 20.111C14.1891 19.9305 14.1159 19.7548 13.9881 19.6269Z" />
</g>
<defs>
<filter id="filter0_d" x="0" y="0" width="43" height="43" filterUnits="userSpaceOnUse" color-interpolation-filters="sRGB">
<feFlood flood-opacity="0" result="BackgroundImageFix"/>
<feColorMatrix in="SourceAlpha" type="matrix" values="0 0 0 0 0 0 0 0 0 0 0 0 0 0 0 0 0 0 127 0"/>
<feOffset dy="4"/>
<feGaussianBlur stdDeviation="2"/>
<feColorMatrix type="matrix" values="0 0 0 0 0 0 0 0 0 0 0 0 0 0 0 0 0 0 0.25 0"/>
<feBlend mode="normal" in2="BackgroundImageFix" result="effect1_dropShadow"/>
<feBlend mode="normal" in="SourceGraphic" in2="effect1_dropShadow" result="shape"/>
</filter>
</defs>
</svg>

<svg width="43" height="43" fill="none" xmlns="http://www.w3.org/2000/svg"><g filter="#filter0_d"><path d="M15.07 8.585a.689.689 0 00-.483-.2.689.689 0 00-.483.2.69.69 0 00-.2.483.685.685 0 001.167.483.69.69 0 00.2-.483.689.689 0 00-.2-.483z"/><path d="M38.8 2.859l-.845-.847.845-.845A.684.684 0 0037.833.2l-.844.845-.833-.834a.683.683 0 00-.484-.2L24.102.003H24.1c-.913 0-1.772.356-2.418 1.002L15.908 6.78a.684.684 0 00.967.967l5.774-5.774A2.04 2.04 0 0124.1 1.37h.002l11.286.007.634.634-2.537 2.537a2.805 2.805 0 00-3.419.422 2.783 2.783 0 00-.82 1.98c0 .748.291 1.452.82 1.98a2.792 2.792 0 001.98.82c.717 0 1.434-.273 1.98-.82a2.806 2.806 0 00.425-3.415l2.537-2.537.645.646-.007 11.273a2.04 2.04 0 01-.601 1.451L20.344 33.033a2.04 2.04 0 01-1.452.601 2.04 2.04 0 01-1.452-.601L5.97 21.559a2.04 2.04 0 01-.602-1.452c0-.548.214-1.064.602-1.452l7.368-7.37a.684.684 0 00-.966-.966L5 17.689a3.399 3.399 0 00-1 2.417c0 .914.356 1.773 1.002 2.42L16.473 34a3.41 3.41 0 002.419 1 3.41 3.41 0 002.419-1l16.68-16.684a3.4 3.4 0 001.003-2.417L39 3.342a.683.683 0 00-.2-.483zm-5.74 5.106c-.271.27-.631.42-1.014.42s-.742-.15-1.013-.42a1.435 1.435 0 011.013-2.447c.139 0 .277.02.41.06l-.789.789a.684.684 0 00.967.967l.787-.787a1.434 1.434 0 01-.361 1.418z"/><path d="M33.2 13.764l-7.966-7.967a2.71 2.71 0 00-3.828 0L8.8 18.406a2.69 2.69 0 00-.793 1.914c0 .723.282 1.403.793 1.914l7.967 7.968c.511.51 1.19.793 1.914.793.723 0 1.402-.282 1.913-.793L33.2 17.592a2.69 2.69 0 00.793-1.913 2.69 2.69 0 00-.793-1.915zm-.966 2.862L19.627 29.235a1.33 1.33 0 01-.947.392 1.33 1.33 0 01-.947-.392l-7.967-7.968a1.33 1.33 0 01-.392-.947c0-.358.139-.695.392-.948L22.373 6.764c.261-.262.604-.392.947-.392.343 0 .686.13.947.392l7.967 7.967c.253.253.392.59.392.948 0 .357-.14.694-.392.947z"/><path d="M26.29 13.677a.684.684 0 00-.966-.967l-.394.394c-1.051-.65-2.4-.563-3.252.29a2.48 2.48 0 00-.716 1.9 2.876 2.876 0 00.853 1.892c.55.55.611 1.384.137 1.859-.475.474-1.309.413-1.859-.137s-.61-1.384-.136-1.859a.684.684 0 00-.967-.967c-.853.853-.94 2.202-.29 3.253l-.468.467a.684.684 0 00.968.967l.467-.467c.46.283.975.427 1.482.427.652 0 1.29-.238 1.77-.717 1.007-1.008.946-2.709-.137-3.792a1.512 1.512 0 01-.454-.991 1.13 1.13 0 01.317-.868c.474-.475 1.308-.413 1.858.137s.611 1.384.137 1.858a.684.684 0 00.966.967c.853-.852.94-2.201.29-3.252l.394-.394zm-6.918 11.335L15.86 21.5a.684.684 0 00-.967.967l3.511 3.512a.682.682 0 00.967 0 .684.684 0 000-.967zm-5.384-5.385a.688.688 0 00-.483-.2.69.69 0 00-.483.2.69.69 0 00-.2.484.684.684 0 00.683.683.687.687 0 00.684-.683.689.689 0 00-.2-.484z"/></g><defs><filter id="filter0_d" x="0" y="0" width="43" height="43" filterUnits="userSpaceOnUse" color-interpolation-filters="sRGB"><feFlood flood-opacity="0" result="BackgroundImageFix"/><feColorMatrix in="SourceAlpha" values="0 0 0 0 0 0 0 0 0 0 0 0 0 0 0 0 0 0 127 0"/><feOffset dy="4"/><feGaussianBlur stdDeviation="2"/><feColorMatrix values="0 0 0 0 0 0 0 0 0 0 0 0 0 0 0 0 0 0 0.25 0"/><feBlend in2="BackgroundImageFix" result="effect1_dropShadow"/><feBlend in="SourceGraphic" in2="effect1_dropShadow" result="shape"/></filter></defs></svg>
